azure-patterns/svg-curly-brackets-gear.svg

<svg xmlns="http://www.w3.org/2000/svg" viewBox="0 0 49 49">
                                
                            
	<path d="M41.6423 48.2177H37.9235V45.6931H41.6423C42.2144 45.6931 42.3995 45.4996 42.4584 45.4407C42.9716 44.9105 42.9296 43.4547 42.8959 42.5795C42.8875 42.3607 42.8875 42.1588 42.8875 41.9736C42.8875 40.4673 42.8286 31.5978 42.8286 31.5136V31.5052C42.8286 28.644 43.914 26.1195 45.908 24.2429C45.2854 23.6286 44.7553 22.9217 44.301 22.1139C43.6532 20.9526 42.8791 19.0171 42.8791 16.3748C42.8791 16.3748 42.8791 8.85163 42.8791 6.72259C42.8791 6.62161 42.8791 6.52063 42.8791 6.41965C42.8791 5.2836 42.8875 3.56692 42.3238 3.0031C42.2649 2.9442 42.105 2.78431 41.6339 2.78431H37.915V0.259766H41.6339C42.6435 0.259766 43.4765 0.579541 44.1159 1.21909C45.42 2.52344 45.4116 4.68613 45.4032 6.42806C45.4032 6.52905 45.4032 6.63003 45.4032 6.72259C45.4032 8.84321 45.4032 16.3748 45.4032 16.3748C45.4032 18.4701 46.0006 19.9849 46.497 20.8769C47.0439 21.853 47.7506 22.6356 48.6004 23.1994L48.6172 25.2948C47.128 26.313 45.3443 28.2149 45.3443 31.4968C45.3443 31.7324 45.4032 40.4757 45.4032 41.9736C45.4032 42.1251 45.4116 42.3102 45.4116 42.5038C45.4537 43.8586 45.5126 45.9035 44.2589 47.1994C43.6195 47.8726 42.7361 48.2177 41.6423 48.2177Z" fill="#50E6FF"></path>
	<path d="M11.3711 48.2177H7.65228C6.64264 48.2177 5.80969 47.8979 5.17025 47.2583C3.86613 45.954 3.87455 43.7913 3.88296 42.0494C3.88296 41.9484 3.88296 41.8474 3.88296 41.7548C3.88296 39.6342 3.88296 32.1027 3.88296 32.1027C3.88296 30.0073 3.28559 28.4926 2.78919 27.6006C2.2423 26.6244 1.53555 25.8418 0.685773 25.278L0.668945 23.1826C2.15816 22.1644 3.94186 20.2626 3.94186 16.9807C3.94186 16.745 3.88296 8.0017 3.88296 6.5038C3.88296 6.35233 3.87455 6.1672 3.87455 5.97365C3.83248 4.61881 3.76517 2.57393 5.0188 1.278C5.67507 0.604786 6.5585 0.259766 7.64387 0.259766H11.3627V2.78431H7.65228C7.08015 2.78431 6.89505 2.97786 6.83615 3.03676C6.32292 3.56692 6.36499 5.02274 6.39864 5.89791C6.40706 6.1167 6.40706 6.31867 6.40706 6.5038C6.40706 8.01011 6.46595 16.8797 6.46595 16.9638V16.9722C6.46595 19.8334 5.38059 22.3579 3.38656 24.2345C4.00917 24.8488 4.53923 25.5557 4.99356 26.3635C5.64142 27.5248 6.41547 29.4603 6.41547 32.1027C6.41547 32.1027 6.41547 39.6258 6.41547 41.7548C6.41547 41.8558 6.41547 41.9568 6.41547 42.0578C6.41547 43.1938 6.40706 44.9105 6.97077 45.4743C7.02967 45.5332 7.18953 45.6931 7.66069 45.6931H11.3795V48.2177H11.3711Z" fill="#50E6FF"></path>
	<path d="M41.0953 25.9174V22.4504H37.5111C37.2082 20.153 36.2996 18.0492 34.9618 16.2989L37.4943 13.7659L35.0459 11.3171L32.505 13.8417C30.755 12.5037 28.6431 11.5948 26.3546 11.2919V7.70703H22.8882V11.2919C20.5913 11.5948 18.4878 12.5037 16.7378 13.8417L14.2053 11.3087L11.7569 13.7575L14.2894 16.2905C12.9517 18.0408 12.043 20.153 11.7401 22.4419H8.14746V25.909H11.7317C12.0346 28.2063 12.9432 30.3101 14.281 32.0605L11.7485 34.5934L14.1969 37.0422L16.7294 34.5093C18.4794 35.8473 20.5913 36.7561 22.8798 37.059V40.6439H26.3462V37.0759C28.6431 36.7729 30.7465 35.8641 32.4966 34.5261L35.0291 37.059L37.4775 34.6102L34.945 32.0773C36.2827 30.3269 37.1914 28.2147 37.4943 25.9258H41.0953V25.9174ZM24.6214 32.1362C20.2379 32.1362 16.6705 28.5682 16.6705 24.1839C16.6705 19.7996 20.2379 16.2316 24.6214 16.2316C29.0049 16.2316 32.5723 19.7996 32.5723 24.1839C32.5723 28.5682 29.0049 32.1362 24.6214 32.1362Z" fill="#0078D4"></path>
</svg>

<svg xmlns="http://www.w3.org/2000/svg" viewBox="0 0 49 49"><path d="M41.642 48.218h-3.719v-2.525h3.72c.571 0 .757-.193.815-.252.514-.53.472-1.986.438-2.861-.008-.22-.008-.421-.008-.606 0-1.507-.06-10.376-.06-10.46v-.009c0-2.861 1.086-5.386 3.08-7.262a9.498 9.498 0 0 1-1.607-2.13c-.648-1.16-1.422-3.096-1.422-5.738V6.723 6.42c0-1.136.009-2.853-.555-3.417-.06-.059-.219-.219-.69-.219h-3.719V.26h3.719c1.01 0 1.843.32 2.482.96 1.304 1.303 1.296 3.466 1.287 5.208v9.947c0 2.095.598 3.61 1.094 4.502.547.976 1.254 1.759 2.103 2.322l.017 2.096c-1.489 1.018-3.273 2.92-3.273 6.202 0 .235.06 8.979.06 10.477 0 .151.008.336.008.53.042 1.355.1 3.4-1.153 4.695-.64.674-1.523 1.019-2.617 1.019zM11.371 48.218H7.652c-1.01 0-1.842-.32-2.482-.96-1.304-1.304-1.295-3.467-1.287-5.209v-.294-9.652c0-2.096-.597-3.61-1.094-4.502-.547-.977-1.253-1.76-2.103-2.323l-.017-2.095c1.49-1.019 3.273-2.92 3.273-6.202 0-.236-.059-8.98-.059-10.477 0-.152-.008-.337-.008-.53-.043-1.355-.11-3.4 1.144-4.696C5.675.605 6.559.26 7.644.26h3.719v2.524h-3.71c-.573 0-.758.194-.817.253-.513.53-.471 1.986-.437 2.86.008.22.008.422.008.607 0 1.506.059 10.376.059 10.46v.008c0 2.861-1.085 5.386-3.08 7.262a9.498 9.498 0 0 1 1.608 2.13c.647 1.16 1.421 3.096 1.421 5.739v9.955c0 1.136-.008 2.852.556 3.416.059.06.219.22.69.22h3.719v2.524h-.009z" fill="#50E6FF"/><path d="M41.095 25.917V22.45h-3.584a12.898 12.898 0 0 0-2.55-6.151l2.533-2.533-2.448-2.449-2.541 2.525a12.928 12.928 0 0 0-6.15-2.55V7.707h-3.467v3.585a12.893 12.893 0 0 0-6.15 2.55l-2.533-2.533-2.448 2.449 2.532 2.533a12.934 12.934 0 0 0-2.549 6.15H8.147v3.468h3.585a12.899 12.899 0 0 0 2.549 6.151l-2.533 2.533 2.449 2.45 2.532-2.534a12.928 12.928 0 0 0 6.15 2.55v3.585h3.467v-3.568a12.895 12.895 0 0 0 6.15-2.55l2.533 2.533 2.448-2.449-2.532-2.533a12.934 12.934 0 0 0 2.55-6.151h3.6v-.009zm-16.474 6.22c-4.383 0-7.95-3.569-7.95-7.953s3.567-7.952 7.95-7.952c4.384 0 7.951 3.568 7.951 7.952s-3.567 7.952-7.95 7.952z" fill="#0078D4"/></svg>
